icon-themes/breeze_svg/cmd/32/bulletsandnumberingdialog.svg

<svg viewBox="0 0 32 32" xmlns="http://www.w3.org/2000/svg"><path d="m11 4v1h17v-1zm0 3v1h13v-1zm0 7v1h17v-1zm0 3v1h4v-1zm8 0v1h9v-1zm-8 7v1h17v-1zm7.90625 2a1 1 0 0 0 -.90625 1 1 1 0 0 0 1 1 1 1 0 0 0 1-1 1 1 0 0 0 -1-1 1 1 0 0 0 -.09375 0zm4 0a1 1 0 0 0 -.90625 1 1 1 0 0 0 1 1 1 1 0 0 0 1-1 1 1 0 0 0 -1-1 1 1 0 0 0 -.09375 0zm4 0a1 1 0 0 0 -.90625 1 1 1 0 0 0 1 1 1 1 0 0 0 1-1 1 1 0 0 0 -1-1 1 1 0 0 0 -.09375 0z" fill="#4d4d4d"/><path d="m4 4v1h1v4h-1v1h3v-1h-1v-4h1v-1h-1-1zm0 10v1h1v4h-1v1h5v-1h-1v-4h1v-1h-3-1zm2 1h1v4h-1z" fill="#1d99f3"/></svg>

<svg xmlns="http://www.w3.org/2000/svg" viewBox="0 0 32 32">
 <path 
     style="fill:#4d4d4d" 
     d="M 11 4 L 11 5 L 28 5 L 28 4 L 11 4 z M 11 7 L 11 8 L 24 8 L 24 7 L 11 7 z M 11 14 L 11 15 L 28 15 L 28 14 L 11 14 z M 11 17 L 11 18 L 15 18 L 15 17 L 11 17 z M 19 17 L 19 18 L 28 18 L 28 17 L 19 17 z M 11 24 L 11 25 L 28 25 L 28 24 L 11 24 z M 18.90625 26 A 1 1 0 0 0 18 27 A 1 1 0 0 0 19 28 A 1 1 0 0 0 20 27 A 1 1 0 0 0 19 26 A 1 1 0 0 0 18.90625 26 z M 22.90625 26 A 1 1 0 0 0 22 27 A 1 1 0 0 0 23 28 A 1 1 0 0 0 24 27 A 1 1 0 0 0 23 26 A 1 1 0 0 0 22.90625 26 z M 26.90625 26 A 1 1 0 0 0 26 27 A 1 1 0 0 0 27 28 A 1 1 0 0 0 28 27 A 1 1 0 0 0 27 26 A 1 1 0 0 0 26.90625 26 z "
     />
 <path 
     style="fill:#1d99f3" 
     d="M 4 4 L 4 5 L 5 5 L 5 9 L 4 9 L 4 10 L 7 10 L 7 9 L 6 9 L 6 5 L 7 5 L 7 4 L 6 4 L 5 4 L 4 4 z M 4 14 L 4 15 L 5 15 L 5 19 L 4 19 L 4 20 L 9 20 L 9 19 L 8 19 L 8 15 L 9 15 L 9 14 L 6 14 L 5 14 L 4 14 z M 6 15 L 7 15 L 7 19 L 6 19 L 6 15 z "
     />
</svg>
